papirus/16x16/apps/tomato.svg

<svg height="16" width="16" xmlns="http://www.w3.org/2000/svg" xmlns:xlink="http://www.w3.org/1999/xlink"><clipPath id="a"><circle cx="286" cy="26" r="10"/></clipPath><circle cx="8" cy="9" fill="#e74c3c" r="7"/><circle clip-path="url(#a)" cx="286" cy="26" opacity="0" r="10" stroke-width=".45455" transform="matrix(.72258066 0 0 .72258066 -197.43226 -10.012903)"/><circle clip-path="url(#a)" cx="286" cy="26" opacity="0" r="10" stroke-width=".90908998" transform="matrix(.72258066 0 0 .72258066 -197.43226 -10.012903)"/><path d="m6.0486455 1.000453c-.05124.001925-.1033864.009927-.1550057.0246285-.2753024.0784154-.4280346.3160842-.3424408.5328446l.214805.5440329c-3.1133528.2668137-4.766004 3.1867495-4.766004 3.1867495 0 0 1.0417619.1741491 3.5544196-1.0595134.6981404-.3427721 1.1006035-.711223 1.3303238-1.0446192-.047476.3439028-.040516.7848048.070317 1.3471501.2783531 1.412326 1.4413582 2.468274 1.4413582 2.468274 0 0 1.4076428-2.0777353-.101798-4.1142499 2.2262916 1.3442726 5.7053794.7600336 5.7053794.7600336 0 0-1.55853-1.3143106-3.2131778-1.6419077-1.2347163-.2444558-2.3713768-.084769-2.9623631.0393054-.0003475-.0401424-.0078764-.0807545-.0236236-.1206055l-.2557828-.6477825c-.0695433-.1761179-.2743833-.2826382-.4964209-.2743416z" fill="#a6ef4d" fill-rule="evenodd"/></svg>

<?xml version="1.0" encoding="UTF-8" standalone="no"?>
<!-- Created with Inkscape (http://www.inkscape.org/) -->

<svg
   xmlns:dc="http://purl.org/dc/elements/1.1/"
   xmlns:cc="http://creativecommons.org/ns#"
   xmlns:rdf="http://www.w3.org/1999/02/22-rdf-syntax-ns#"
   xmlns:svg="http://www.w3.org/2000/svg"
   xmlns="http://www.w3.org/2000/svg"
   xmlns:sodipodi="http://sodipodi.sourceforge.net/DTD/sodipodi-0.dtd"
   xmlns:inkscape="http://www.inkscape.org/namespaces/inkscape"
   id="svg2817"
   height="16"
   width="16"
   version="1.0"
   inkscape:version="0.91 r13725"
   sodipodi:docname="tomato.svg">
  <sodipodi:namedview
     pagecolor="#ffffff"
     bordercolor="#666666"
     borderopacity="1"
     objecttolerance="10"
     gridtolerance="10"
     guidetolerance="10"
     inkscape:pageopacity="0"
     inkscape:pageshadow="2"
     inkscape:window-width="1600"
     inkscape:window-height="847"
     id="namedview31"
     showgrid="false"
     inkscape:zoom="12.239653"
     inkscape:cx="-24.428959"
     inkscape:cy="14.1958"
     inkscape:window-x="0"
     inkscape:window-y="0"
     inkscape:window-maximized="1"
     inkscape:current-layer="svg2817" />
  <metadata
     id="metadata57">
    <rdf:RDF>
      <cc:Work
         rdf:about="">
        <dc:format>image/svg+xml</dc:format>
        <dc:type
           rdf:resource="http://purl.org/dc/dcmitype/StillImage" />
        <dc:title />
      </cc:Work>
    </rdf:RDF>
  </metadata>
  <defs
     id="defs2819">
    <clipPath
       id="clipPath4186"
       clipPathUnits="userSpaceOnUse">
      <circle
         id="path4188"
         style="color:#000000;fill:url(#linearGradient4190)"
         cx="286"
         cy="26"
         r="10" />
    </clipPath>
  </defs>
  <circle
     id="path4230"
     style="color:#000000;fill:#e74c3c"
     cx="8"
     cy="9"
     r="7" />
  <circle
     id="path4240"
     style="color:#000000;opacity:0;stroke-width:0.45455"
     clip-path="url(#clipPath4186)"
     cx="286"
     transform="matrix(0.72258066,0,0,0.72258066,-197.43226,-10.012903)"
     cy="26"
     r="10" />
  <circle
     id="path4242"
     style="color:#000000;opacity:0;stroke-width:0.90908998"
     clip-path="url(#clipPath4186)"
     cx="286"
     transform="matrix(0.72258066,0,0,0.72258066,-197.43226,-10.012903)"
     cy="26"
     r="10" />
  <path
     inkscape:connector-curvature="0"
     style="display:inline;fill:#a6ef4d;fill-opacity:1;fill-rule:evenodd;stroke:none;stroke-width:2;stroke-linecap:butt;stroke-linejoin:miter;stroke-miterlimit:4;stroke-dasharray:none;stroke-opacity:0.89019608"
     d="M 6.0486455,1.000453 C 5.9974055,1.002378 5.9452591,1.01038 5.8936398,1.0250815 5.6183374,1.1034969 5.4656052,1.3411657 5.551199,1.5579261 L 5.766004,2.101959 C 2.6526512,2.3687727 1,5.2887085 1,5.2887085 c 0,0 1.0417619,0.1741491 3.5544196,-1.0595134 C 5.25256,3.886423 5.6550231,3.5179721 5.8847434,3.1845759 5.8372674,3.5284787 5.8442274,3.9693807 5.9550604,4.531726 6.2334135,5.944052 7.3964186,7 7.3964186,7 c 0,0 1.4076428,-2.0777353 -0.101798,-4.1142499 C 9.5209122,4.2300227 13,3.6457837 13,3.6457837 c 0,0 -1.55853,-1.3143106 -3.2131778,-1.6419077 C 8.5521059,1.7594202 7.4154454,1.919107 6.8244591,2.0431814 6.8241116,2.003039 6.8165827,1.9624269 6.8008355,1.9225759 L 6.5450527,1.2747934 C 6.4755094,1.0986755 6.2706694,0.9921552 6.0486318,1.0004518 Z"
     id="path4216-3" />
</svg>
